X: 12957
T: Fiddler's Settle, The
R: reel
M: 4/4
K: Eminor
B2 Ac BEGE|D2 EG DEGc|BEDE CEDE|edBG c2 Gc|
B2 Ac BEGE|D2 EG DEGc|1 Bece gecF|edBG c2:|2 Bece gecf|edBg f2||
e2 Be geBb|c'baf gecA|Bege ceAe|dfaf gecA|
Bece geBb|c'2 gb fagc|1 Bece gecf|edBg f2:|2 Bece gecF|edBG c2||

